X: 1
T: The New Broom
C: Vincent Broderick
M: 4/4
L: 1/8
R: barndance, reel
F: Catskills+Tunes.txt
S: Fiddle Hell Online 2022-4-8 handout for Becky Tracy's tune workshop
Z: 2022 John Chambers <jc:trillian.mit.edu>
K: G
D2 !segno!|:\
G3B  d2Bd | e2dB d2BA | G3A B2AG | A2 E2 E2 DE |
G2GB d2B{c}d | e2dB d2Bd | edge dBA{B}c |1 B2 G2 G2 D/E/F :|2 B2 G2 G2 ga ||
b3a g2ga | bgag e2d2 | edge dBGA | B2 G2 A2 ga |
b3a g2ga | bgag e2d2 | edge dBA{B}c | B2 G2 G2 ga |
b3a g2ga | bgag e2d2 | edge dBGA | B2A2 AcBA |
G3B d2B{c}d | e2dB d2Bd | edge dBA{B}c | B2G2 G2 D/E/!segno!F |]
